**kern	**kern	**kern	**kern
*staff3	*staff4	*staff1	*staff2
*clefF4	*clefF4	*clefG2	*clefG2
*k[f#c#]	*k[f#c#]	*k[f#c#]	*k[f#c#]
*M2/4	*M2/4	*M2/4	*M2/4
*D:	*D:	*D:	*D:
=-	=-	=-	=-
2r	2r	4r	2r
.	.	32r	.
.	.	(32aLLL	.
.	.	32b	.
.	.	32cc#JJ	.
.	.	32ddLL	.
.	.	32ee	.
.	.	32ff#	.
.	.	32ggJJJ	.
=531	=531	=531	=531
2r	8d 8f#	16aaLL)	2r
.	.	16a	.
.	8r	16b	.
.	.	16aJJ	.
.	8A 8e	16aaLL	.
.	.	16a	.
.	8r	16b	.
.	.	16aJJ	.
=532	=532	=532	=532
2r	[4F# [4d	16aaLL	2r
.	.	16a	.
.	.	16b	.
.	.	16aJJ	.
.	8.F#L] 8.d]	16aaLL	.
.	.	16a	.
.	.	16b	.
.	16AJk 16c#	16aJJ	.
=533	=533	=533	=533
2r	4G 4B	16dddLL	2r
.	.	16dd	.
.	.	16ee	.
.	.	16ddJJ	.
.	(8GL 8B	16dddLL	.
.	.	16dd	.
.	8dJ)	16ee	.
.	.	16ddJJ	.
=534	=534	=534	=534
2r	4F# 4A	16dddLL	2r
.	.	16dd	.
.	.	16ee	.
.	.	16ddJJ	.
.	8r	16dddLL	.
.	.	16dd	.
.	16r	16ee	.
.	16E 16G	16ddJJ	.
=535	=535	=535	=535
2r	8D 8F#	16aaLL	2r
.	.	16dd	.
.	8r	16ee	.
.	.	16ddJJ	.
.	(4D 4F#	16aaLL	.
.	.	16dd	.
.	.	16ee	.
.	.	16ddJJ	.
=536	=536	=536	=536
2r	8GG) 8E	16ggLL	2r
.	.	16b	.
.	8r	16cc#	.
.	.	16bJJ	.
.	(4GG 4E	16ggLL	.
.	.	16b	.
.	.	16cc#	.
.	.	16bJJ	.
=537	=537	=537	=537
2r	8AA) 8C#	16eeLL	2r
.	.	16a	.
.	8r	16b	.
.	.	16aJJ	.
.	(4AA 4C#	16eeLL	.
.	.	16a	.
.	.	16b	.
.	.	16aJJ	.
=538	=538	=538	=538
2r	8DD) 8D	16ff#LL	2r
.	.	16a	.
.	8r	16b	.
.	.	16aJJ	.
.	4r	16ff#LL	.
.	.	16a	.
.	.	16b	.
.	.	16aJJ	.
=539	=539	=539	=539
2r	8F# 8f#	16aaLL	2r
.	.	16dd	.
.	8r	16ee	.
.	.	16ddJJ	.
.	(4F# 4f#	16aaLL	.
.	.	16dd	.
.	.	16ee	.
.	.	16ddJJ	.
=540	=540	=540	=540
2r	8G) 8g	16bbLL	2r
.	.	16dd	.
.	8r	16ee	.
.	.	16ddJJ	.
.	(4G 4g	16bbLL	.
.	.	16dd	.
.	.	16ee	.
.	.	16ddJJ	.
=541	=541	=541	=541
2r	8A) 8e	16ccc#LL	2r
.	.	16gg	.
.	8r	16aa	.
.	.	16ggJJ	.
.	(4A 4e	16ccc#LL	.
.	.	16gg	.
.	.	16aa	.
.	.	16ggJJ	.
=542	=542	=542	=542
2r	8D) 8d	16dddLL	2r
.	.	16ff#	.
.	8r	16gg	.
.	.	16ff#JJ	.
.	4r	16dddLL	.
.	.	16dd	.
.	.	16ee	.
.	.	16ddJJ	.
=543	=543	=543	=543
2r	8A 8e	16aaLL	2r
.	.	16cc#	.
.	8r	16dd	.
.	.	16cc#JJ	.
.	(4A 4e	16aaLL	.
.	.	16a	.
.	.	16b	.
.	.	16aJJ	.
=544	=544	=544	=544
2r	8d) 8f#	16aaLL	2r
.	.	16a	.
.	8r	16b	.
.	.	16aJJ	.
.	4r	16bLL	.
.	.	16a	.
.	.	16b	.
.	.	16aJJ	.
=545	=545	=545	=545
2r	8AA 8E	16aaLL	2r
.	.	16a	.
.	8r	16b	.
.	.	16aJJ	.
.	(4AA 4E	16aaLL	.
.	.	16a	.
.	.	16b	.
.	.	16aJJ	.
=546	=546	=546	=546
2r	8DD) 8D	8aa'L	2r
.	8r	(8aJ	.
.	4r	8bL	.
.	.	8aJ)	.
=547	=547	=547	=547
2r	8d' 8f#'	8aa'L	2r
.	8r	(8aJ	.
.	8A' 8e'	8bL	.
.	8r	8aJ)	.
=548	=548	=548	=548
2r	8F#' 8d'	8aa'L	2r
.	8r	(8aJ	.
.	4r	8bL	.
.	.	8aJ)	.
=549	=549	=549	=549
2r	8D' 8F#'	8aa'L	2r
.	8r	(8aJ	.
.	8AA' 8E'	8bL	.
.	8r	8aJ)	.
=550	=550	=550	=550
2r	8FF#' 8D'	4aa'	2r
.	8r	.	.
.	4r	4a'	.
=551	=551	=551	=551
2r	2r	4b'	2r
.	.	4a'	.
=552	=552	=552	=552
2r	4d 4f#	2r	2r
.	4r	.	.
=553	=553	=553	=553
2r	4A 4e	2r	2r
.	4r	.	.
=554	=554	=554	=554
2r	4F# 4d	2aa	2r
.	4r	.	.
=555	=555	=555	=555
2r	2r	2a	2r
=556	=556	=556	=556
2r	2r	2b	2r
=557	=557	=557	=557
2r	2r	2a	2r
=558	=558	=558	=558
2r	4D' 4F#'	2r	2r
.	4r	.	.
=559	=559	=559	=559
2r	2r	2r	2r
=560	=560	=560	=560
2r	4AA' 4E'	2r	2r
.	4r	.	.
=561	=561	=561	=561
2r	2r	2r	2r
=562	=562	=562	=562
2r	4FF#' 4D'	[2aa	2r
.	4r	.	.
=563	=563	=563	=563
2r	2r	2aa]	2r
=564	=564	=564	=564
2r	2r	[2a	2r
=565	=565	=565	=565
2r	2r	2a]	2r
=566	=566	=566	=566
2r	2r	[2b	2r
=567	=567	=567	=567
2r	2r	2b]	2r
=568	=568	=568	=568
2r	2r	[2a	2r
=569	=569	=569	=569
2r	2r	2a]	2r
=570	=570	=570	=570
2r	[2DD [2AA	2r	2r
=571	=571	=571	=571
2r	2DD_ 2AA_	2r	2r
=572	=572	=572	=572
2r	2DD_ 2AA_	2r	2r
=573	=573	=573	=573
2r	2DD] 2AA]	2r	2r
=574	=574	=574	=574
2r	[2DD [2AA	[2ff# [2ddd	2r
=575	=575	=575	=575
2r	2DD_ 2AA_	2ff#_ 2ddd_	2r
=576	=576	=576	=576
2r	2DD_ 2AA_	2ff#_ 2ddd_	2r
=577	=577	=577	=577
2r	2DD] 2AA]	2ff#] 2ddd]	2r
=578	=578	=578	=578
2r	2DD; 2AA;	2ff#; 2ddd;	2r
==	==	==	==
*-	*-	*-	*-
*-	*-	*-	*-
